MonoIcons/scalable/status/media-playlist-repeat-song-symbolic.svg

<?xml version="1.0" encoding="UTF-8"?>
<svg height="16px" viewBox="0 0 16 16" width="16px" xmlns="http://www.w3.org/2000/svg">
    <path d="m 7 1 v 2 h -3 c -2.199219 0 -4 1.800781 -4 4 v 2 c 0 1.019531 0.386719 1.964844 1.019531 2.671875 c 0.367188 0.410156 1 0.445313 1.410157 0.078125 c 0.414062 -0.367188 0.449218 -1 0.078124 -1.414062 c -0.316406 -0.351563 -0.507812 -0.8125 -0.507812 -1.335938 v -2 c 0 -1.125 0.875 -2 2 -2 h 3 v 2 h 1 v -0.007812 c 0.265625 0.003906 0.519531 -0.101563 0.707031 -0.285157 l 2 -2 c 0.207031 -0.207031 0.3125 -0.496093 0.289063 -0.789062 c 0 -0.015625 -0.003906 -0.03125 -0.007813 -0.046875 c -0.007812 -0.070313 -0.023437 -0.136719 -0.046875 -0.203125 c -0.011718 -0.035157 -0.023437 -0.070313 -0.042968 -0.101563 c 0 -0.007812 -0.003907 -0.011718 -0.007813 -0.019531 c -0.011719 -0.023437 -0.027344 -0.046875 -0.039063 -0.070313 c -0.007812 -0.011718 -0.019531 -0.027343 -0.027343 -0.039062 c -0.015625 -0.019531 -0.027344 -0.042969 -0.042969 -0.0625 c -0.007812 -0.007812 -0.015625 -0.015625 -0.023438 -0.023438 c -0.015624 -0.019531 -0.03125 -0.039062 -0.050781 -0.058593 l -2 -2 c -0.1875 -0.183594 -0.441406 -0.289063 -0.707031 -0.285157 v -0.007812 z m 7 1 c -1.105469 0 -2 0.894531 -2 2 s 0.894531 2 2 2 s 2 -0.894531 2 -2 s -0.894531 -2 -2 -2 z m 1 5 c -0.550781 0 -1 0.449219 -1 1 v 1.007812 c 0 1.125 -0.875 2 -2 2 h -4 v -2.007812 h -1 v 0.007812 c -0.265625 -0.003906 -0.519531 0.101563 -0.707031 0.285157 l -2 2 c -0.390625 0.390625 -0.390625 1.023437 0 1.414062 l 2 2 c 0.1875 0.183594 0.441406 0.289063 0.707031 0.285157 v 0.007812 h 1 v -1.992188 h 4 c 2.199219 0 4 -1.804687 4 -4 v -1.007812 c 0 -0.550781 -0.449219 -1 -1 -1 z m 0 0" fill="#2e3436"/>
</svg>

<svg width="16" height="16" viewBox="0 0 16 16" fill="none" xmlns="http://www.w3.org/2000/svg">
<g clip-path="url(#clip0_231_1040)">
<path d="M7 1V3H4C1.80078 3 0 4.80078 0 7V9C0 10.0195 0.386719 10.9648 1.01953 11.6719C1.38672 12.082 2.01953 12.1172 2.42969 11.75C2.84375 11.3828 2.87891 10.75 2.50781 10.3359C2.19141 9.98438 2 9.52344 2 9V7C2 5.875 2.875 5 4 5H7V7H8V6.99219C8.26562 6.99609 8.51953 6.89062 8.70703 6.70703L10.707 4.70703C10.9141 4.5 11.0195 4.21094 10.9961 3.91797C10.9961 3.90234 10.9922 3.88672 10.9883 3.87109C10.9805 3.80078 10.9648 3.73437 10.9414 3.66797C10.9297 3.63281 10.918 3.59766 10.8984 3.56641C10.8984 3.55859 10.8945 3.55469 10.8906 3.54688C10.8789 3.52344 10.8633 3.5 10.8516 3.47656C10.8437 3.46484 10.832 3.44922 10.8242 3.4375C10.8086 3.41797 10.7969 3.39453 10.7812 3.375C10.7734 3.36719 10.7656 3.35938 10.7578 3.35156C10.7422 3.33203 10.7266 3.3125 10.707 3.29297L8.70703 1.29297C8.51953 1.10937 8.26562 1.00391 8 1.00781V1H7ZM14 2C12.8945 2 12 2.89453 12 4C12 5.10547 12.8945 6 14 6C15.1055 6 16 5.10547 16 4C16 2.89453 15.1055 2 14 2ZM15 7C14.4492 7 14 7.44922 14 8V9.00781C14 10.1328 13.125 11.0078 12 11.0078H8V9H7V9.00781C6.73437 9.00391 6.48047 9.10937 6.29297 9.29297L4.29297 11.293C3.90234 11.6836 3.90234 12.3164 4.29297 12.707L6.29297 14.707C6.48047 14.8906 6.73437 14.9961 7 14.9922V15H8V13.0078H12C14.1992 13.0078 16 11.2031 16 9.00781V8C16 7.44922 15.5508 7 15 7V7Z" fill="#2E3436"/>
</g>
<defs>
<clipPath id="clip0_231_1040">
<rect width="16" height="16" fill="white"/>
</clipPath>
</defs>
</svg>
